X:49
T:Patsy Hanley's
R:Reel
S:Seamus Quinn, Fermanagh (fiddle) and Gary Hastings, flute (Belfast).
D:From RTE Broadcast, Christmas 1996
H:Played after 'The New Copperplate'
M:4/4
Z:Bernie Stocks
K:G
|: GAEG A3B | cded cAA2 | G2EG A2GA | cAGE {G}EDD2 :| ~g3g {a}gede | g2ae gedg | 
eg~g2 gede | cded cAA2 | egga gede | g2ae gede | g2(3efg agea | gede cAA2 ||
<end>
<start>
